X:55
%
% From O'Neill's of Ireland, No. 196
%
T:The Girl of the Big House
C:Cronin
L:1/8
M:6/8
K:D treble
Q:1/4=70
(F2 D) (G2 E) | AGE EDD | (F2 D) (G2 E) | (AGE) d2 z | 
(F2 D) (G2 E) | AGE EDD |(D=cA) GFE | (FD)D (ED)D :|
|: ABA AGF | GAG GFG | ABA cAG | (Ad)d d2 e |
fed cAG | FGF GFE | dcA GFD |1 (FD)D (ED)D :|2 (FD)D d3 |]



